images_sukapura_svg/cmd/lc_protect.svg

<?xml version="1.0" encoding="UTF-8" standalone="no"?>
<svg
   xmlns:dc="http://purl.org/dc/elements/1.1/"
   xmlns:cc="http://creativecommons.org/ns#"
   xmlns:rdf="http://www.w3.org/1999/02/22-rdf-syntax-ns#"
   xmlns:svg="http://www.w3.org/2000/svg"
   xmlns="http://www.w3.org/2000/svg"
   xmlns:sodipodi="http://sodipodi.sourceforge.net/DTD/sodipodi-0.dtd"
   xmlns:inkscape="http://www.inkscape.org/namespaces/inkscape"
   viewBox="0 0 24 24"
   version="1.1"
   id="svg6"
   sodipodi:docname="lc_protect.svg"
   inkscape:version="0.92.3 (unknown)">
  <metadata
     id="metadata12">
    <rdf:RDF>
      <cc:Work
         rdf:about="">
        <dc:format>image/svg+xml</dc:format>
        <dc:type
           rdf:resource="http://purl.org/dc/dcmitype/StillImage" />
        <dc:title />
      </cc:Work>
    </rdf:RDF>
  </metadata>
  <defs
     id="defs10">
    <clipPath
       clipPathUnits="userSpaceOnUse"
       id="clipPath837">
      <rect
         style="opacity:1;fill:#ff9500;fill-opacity:1;stroke:#0040dd;stroke-width:2;stroke-linecap:round;stroke-linejoin:round;stroke-miterlimit:4;stroke-dasharray:none;stroke-opacity:1"
         id="rect839"
         width="45"
         height="45"
         x="985"
         y="-496"
         rx="0.5"
         ry="0.5" />
    </clipPath>
  </defs>
  <sodipodi:namedview
     pagecolor="#ffffff"
     bordercolor="#666666"
     borderopacity="1"
     objecttolerance="10"
     gridtolerance="10"
     guidetolerance="10"
     inkscape:pageopacity="0"
     inkscape:pageshadow="2"
     inkscape:window-width="1366"
     inkscape:window-height="699"
     id="namedview8"
     showgrid="true"
     inkscape:snap-smooth-nodes="true"
     inkscape:zoom="4.9166667"
     inkscape:cx="-6.4454859"
     inkscape:cy="-5.7821119"
     inkscape:window-x="0"
     inkscape:window-y="0"
     inkscape:window-maximized="1"
     inkscape:current-layer="svg6">
    <inkscape:grid
       type="xygrid"
       id="grid822" />
  </sodipodi:namedview>
  <g
     id="g841">
    <g
       id="g825">
      <path
         style="fill:#a48200;fill-opacity:1"
         d="M 5 12 C 4.446 12 4 12.446 4 13 L 4 21 C 4 21.554 4.446 22 5 22 L 19 22 C 19.554 22 20 21.554 20 21 L 20 13 C 20 12.446 19.554 12 19 12 L 17 12 L 16 12 L 8 12 L 7 12 L 5 12 z M 5 13 L 6 13 L 18 13 L 19 13 L 19 14 L 19 20 L 19 21 L 18 21 L 6 21 L 5 21 L 5 20 L 5 14 L 5 13 z "
         id="path2" />
      <path
         d="m5 13h14v8h-14z"
         fill="#fff"
         id="path4"
         style="fill:#ffcc00;fill-opacity:1;stroke:none" />
      <rect
         style="opacity:1;fill:#a05a00;fill-opacity:1;stroke:none;stroke-width:2;stroke-linecap:round;stroke-linejoin:round;stroke-miterlimit:4;stroke-dasharray:none;stroke-opacity:1"
         id="rect841"
         width="14"
         height="1"
         x="5"
         y="16"
         rx="0"
         ry="0" />
      <rect
         ry="0"
         rx="0"
         y="18"
         x="5"
         height="1"
         width="14"
         id="rect843"
         style="opacity:1;fill:#a05a00;fill-opacity:1;stroke:none;stroke-width:2;stroke-linecap:round;stroke-linejoin:round;stroke-miterlimit:4;stroke-dasharray:none;stroke-opacity:1" />
    </g>
    <g
       id="g830">
      <path
         style="fill:#69696e;fill-opacity:1"
         d="M 12 2 A 5 5 0 0 0 7 7 L 7 12 L 8 12 L 8 7 A 4 4 0 0 1 12 3 A 4 4 0 0 1 16 7 L 16 12 L 17 12 L 17 7 A 5 5 0 0 0 12 2 z "
         id="path845" />
      <path
         style="fill:#ebebeb;fill-opacity:1"
         d="M 12 3 C 9.790861 3 8 4.790861 8 7 L 8 12 L 9 12 L 9 7 C 9 5.3431458 10.343146 4 12 4 C 13.656854 4 15 5.3431458 15 7 L 15 12 L 16 12 L 16 7 C 16 4.790861 14.209139 3 12 3 z "
         id="path860" />
      <path
         style="fill:#69696e;fill-opacity:1;stroke-width:0.60000002"
         d="M 12 4 C 10.343146 4 9 5.3431458 9 7 L 9 12 L 10 12 L 10 7.3339844 C 10 6.2294149 10.895431 5.3339844 12 5.3339844 C 13.10457 5.3339844 14 6.2294149 14 7.3339844 L 14 12 L 15 12 L 15 7 C 15 5.3431458 13.656854 4 12 4 z "
         id="path853" />
    </g>
  </g>
</svg>

<svg viewBox="0 0 24 24" xmlns="http://www.w3.org/2000/svg"><path d="m5 12c-.554 0-1 .446-1 1v8c0 .554.446 1 1 1h14c.554 0 1-.446 1-1v-8c0-.554-.446-1-1-1h-2-1-8-1zm0 1h1 12 1v1 6 1h-1-12-1v-1-6z" fill="#a48200"/><path d="m5 13h14v8h-14z" fill="#fc0"/><path d="m5 16h14v1h-14z" fill="#a05a00"/><path d="m5 18h14v1h-14z" fill="#a05a00"/><path d="m12 2a5 5 0 0 0 -5 5v5h1v-5a4 4 0 0 1 4-4 4 4 0 0 1 4 4v5h1v-5a5 5 0 0 0 -5-5z" fill="#69696e"/><path d="m12 3c-2.209139 0-4 1.790861-4 4v5h1v-5c0-1.6568542 1.343146-3 3-3s3 1.3431458 3 3v5h1v-5c0-2.209139-1.790861-4-4-4z" fill="#ebebeb"/><path d="m12 4c-1.656854 0-3 1.3431458-3 3v5h1v-4.6660156c0-1.1045695.895431-2 2-2 1.10457 0 2 .8954305 2 2v4.6660156h1v-5c0-1.6568542-1.343146-3-3-3z" fill="#69696e" stroke-width=".6"/></svg>
